svgs/thin/notdef.svg

<svg xmlns="http://www.w3.org/2000/svg" viewBox="0 0 384 512"><!--! Font Awesome Pro 6.3.0 by @fontawesome - https://fontawesome.com License - https://fontawesome.com/license (Commercial License) Copyright 2023 Fonticons, Inc. --><path d="M352 0H32C14.33 0 0 14.33 0 32v448c0 17.67 14.33 32 32 32h320c17.67 0 32-14.33 32-32V32C384 14.33 369.7 0 352 0zM368 32v448c0 .6875-.3086 1.281-.3945 1.945L201.9 256l165.7-225.9C367.7 30.72 368 31.31 368 32zM352 16c1.879 0 3.623 .4766 5.299 1.07L192 242.5L26.7 17.07C28.38 16.48 30.12 16 32 16H352zM16.39 481.9C16.31 481.3 16 480.7 16 480V32c0-.6875 .3086-1.281 .3945-1.945L182.1 256L16.39 481.9zM32 496c-1.879 0-3.623-.4766-5.299-1.07L192 269.5l165.3 225.4C355.6 495.5 353.9 496 352 496H32z"/></svg>

<svg xmlns="http://www.w3.org/2000/svg" viewBox="0 0 384 512"><!-- Font Awesome Pro 6.0.0-alpha2 by @fontawesome - https://fontawesome.com License - https://fontawesome.com/license (Commercial License) --><path d="M352 0H32C14.326 0 0 14.328 0 32V480C0 497.672 14.326 512 32 512H352C369.674 512 384 497.672 384 480V32C384 14.328 369.674 0 352 0ZM368 32V480C368 480.688 367.691 481.281 367.605 481.945L201.914 256L367.605 30.055C367.691 30.719 368 31.312 368 32ZM352 16C353.879 16 355.623 16.477 357.299 17.07L192 242.484L26.701 17.07C28.377 16.477 30.121 16 32 16H352ZM16.395 481.945C16.309 481.281 16 480.688 16 480V32C16 31.312 16.309 30.719 16.395 30.055L182.086 256L16.395 481.945ZM32 496C30.121 496 28.377 495.523 26.701 494.93L192 269.516L357.299 494.93C355.623 495.523 353.879 496 352 496H32Z"/></svg>
